packages/foundations/assets/icons/functional/images/file/cloud_download_12.svg

<svg width="12" height="12" viewBox="0 0 12 12" fill="none" xmlns="http://www.w3.org/2000/svg">
<g clip-path="url(#clip0_232_221)">
<path fill-rule="evenodd" clip-rule="evenodd" d="M6.00001 5.4C6.30771 5.4 6.56132 5.63162 6.59598 5.93002L6.60001 6L6.60017 8.78012C6.82961 8.6476 7.12801 8.67947 7.32428 8.87573C7.54057 9.09202 7.5572 9.43236 7.37419 9.66774L7.32428 9.72426L6.42428 10.6243L6.37528 10.6682L6.31244 10.7124L6.25395 10.7438L6.1873 10.7702L6.12045 10.7879L6.04516 10.7983L6.00001 10.8L5.94599 10.7976L5.91093 10.7934L5.84042 10.7785L5.77721 10.7573L5.70957 10.7252L5.64283 10.6822L5.60847 10.6547L5.57575 10.6243L4.67575 9.72426L4.62583 9.66774C4.45807 9.45198 4.45807 9.14802 4.62583 8.93226L4.67575 8.87573L4.73227 8.82582C4.90485 8.69163 5.13385 8.66478 5.32901 8.74525L5.40044 8.78046L5.40001 6L5.40405 5.93002C5.43871 5.63162 5.69231 5.4 6.00001 5.4ZM7.20001 1.2C8.85687 1.2 10.2 2.54314 10.2 4.2L10.1922 4.4058L10.2437 4.46344C10.5362 4.81389 10.7247 5.24268 10.7817 5.70314L10.7958 5.85774L10.8 6C10.8 7.23199 9.86925 8.25466 8.64634 8.3865L8.5231 8.39669L8.39941 8.39674C8.09215 8.39687 7.83881 8.16569 7.80407 7.86772L7.80001 7.7976C7.80001 7.46652 8.06834 7.1981 8.39941 7.19797L8.47107 7.19795C9.07284 7.16308 9.55237 6.68528 9.59667 6.09011L9.60001 6C9.60001 5.67771 9.47286 5.37725 9.25191 5.15499L9.17484 5.08388L8.91079 4.8605L8.97175 4.52006C8.99049 4.41535 9.00001 4.30842 9.00001 4.2C9.00001 3.20588 8.19412 2.4 7.20001 2.4C6.58285 2.4 6.02139 2.71277 5.69342 3.21625L5.63099 3.31945L5.4237 3.68942L5.00576 3.61747C4.93845 3.60588 4.86974 3.6 4.80001 3.6C4.30099 3.6 3.86161 3.90746 3.68312 4.35929L3.65096 4.45153L3.55781 4.75833L3.25098 4.85138C2.74977 5.00338 2.40001 5.46775 2.40001 6C2.40001 6.63261 2.88954 7.1509 3.51045 7.19671L3.60031 7.2C3.93152 7.2 4.20001 7.46849 4.20001 7.7997C4.20001 8.10733 3.96859 8.36097 3.67027 8.39589L3.60001 8.4C2.31469 8.4 1.26536 7.38962 1.20295 6.11978L1.20001 6C1.20001 5.10115 1.69845 4.29953 2.45783 3.88858L2.56807 3.83256L2.61241 3.8124L2.63238 3.76817C2.9878 3.02198 3.70961 2.50217 4.54501 2.41347L4.67782 2.40308L4.80001 2.4L4.90948 2.26322C5.43944 1.63547 6.35483 1.23979 7.20001 1.2Z" fill="#1A1C1F"/>
</g>
<defs>
<clipPath id="clip0_232_221">
<rect width="12" height="12" fill="white"/>
</clipPath>
</defs>
</svg>

<svg xmlns="http://www.w3.org/2000/svg" width="12" height="12" fill="none"><g clip-path="url(#a)"><path fill="#1A1C1F" fill-rule="evenodd" d="M6 5.4a.6.6 0 0 1 .596.53L6.6 6v2.78a.6.6 0 0 1 .774.888l-.05.056-.9.9-.049.044-.063.044-.058.032-.067.026-.067.018-.075.01L6 10.8l-.054-.002-.035-.005-.07-.014-.064-.022-.067-.032-.067-.043-.035-.027-.032-.03-.9-.9-.05-.057a.6.6 0 0 1 0-.736l.05-.056.056-.05a.6.6 0 0 1 .597-.08l.071.034V6l.004-.07A.6.6 0 0 1 6 5.4m1.2-4.2a3 3 0 0 1 3 3l-.008.206.052.057c.292.35.48.78.538 1.24l.014.155L10.8 6c0 1.232-.93 2.255-2.154 2.387l-.123.01H8.4a.6.6 0 0 1-.595-.53l-.004-.07a.6.6 0 0 1 .6-.599h.071A1.2 1.2 0 0 0 9.597 6.09L9.6 6c0-.322-.127-.623-.348-.845l-.077-.071-.264-.223.06-.34q.03-.159.029-.321a1.8 1.8 0 0 0-3.307-.984l-.062.103-.207.37-.418-.072a1.202 1.202 0 0 0-1.323.742l-.032.093-.093.306-.307.093a1.2 1.2 0 0 0 .26 2.346l.09.003a.6.6 0 0 1 .07 1.196L3.6 8.4a2.4 2.4 0 0 1-2.397-2.28L1.2 6a2.4 2.4 0 0 1 1.258-2.111l.11-.056.044-.02.02-.045a2.4 2.4 0 0 1 1.913-1.355l.133-.01L4.8 2.4l.11-.137C5.44 1.635 6.354 1.24 7.2 1.2" clip-rule="evenodd"/></g><defs><clipPath id="a"><path fill="#fff" d="M0 0h12v12H0z"/></clipPath></defs></svg>
